X:1
T:Purer in Heart
T: James Henry Fillmore, Sr.
T:Purer in Heart
T:Public Domain
T:Public Domain
C:James Henry Fillmore, Sr.
Z:Public Domain
%%score 1 ( 2 3 )
L:1/8
M:4/4
K:G
V:1 treble 
V:2 bass 
V:3 bass 
V:1
 [DB]4 [Ec]2 [DB]2 | [DB]3 [CA] [B,G]4 | [EG]4 [DF]2 [CE]2 | [B,D]8 | [DA]4 [DA]2 [DA]2 | %5
w: 1.~Pur- er in|heart, O God,|help me to|be;|May I de-|
w: 2.~Pur- er in|heart, O God,|help me to|be;|Teach me to|
w: 3.~Pur- er in|heart, O God,|help me to|be;|Un- til Thy|
 [DB]3 [Dc] [Dd]4 | [Fd]4 [E^c]2 [Gc]2 | [Fd]8 | [Gd]4 [Dc]2 [DB]2 | [DB]3 [CA] [B,G]4 | %10
w: vote my life|whol- ly to|Thee:|Watch Thou my|way- ward feet,|
w: do Thy will|most lov- ing-|ly;|Be Thou my|friend and guide,|
w: ho- ly face|one day I|see:|Keep me from|sec- ret sin,|
 [EG]4 [DF]2 [CE]2 | [CE]3 [B,D] [B,D]4 | [DA]4 [DA]2 [DA]2 | [DB]8 | [Ec]4 [DB]2 [DA]2 | [DG]8 |] %16
w: Guide me with|coun- sel sweet;|Pur- er in|heart,|help me to|be.|
w: Let me with|Thee a- bide;|Pur- er in|heart,|help me to|be.|
w: Reign Thou my|soul with- in;|Pur- er in|heart,|help me to|be.|
V:2
 G,4 G,2 G,2 | [D,G,]3 [D,F,] [E,G,]4 | [C,G,]4 [C,G,]2 [C,G,]2 | [G,,G,]8 | %4
 [D,F,]4 [D,F,]2 [D,F,]2 | G,3 [G,A,] [G,B,]4 | A,4 [A,,A,]2 [A,,A,]2 | [D,A,]8 | %8
 [G,B,]4 [G,A,]2 G,2 | [D,G,]3 [D,F,] [E,G,]4 | [C,G,]4 [C,G,]2 [C,G,]2 | %11
 [G,,G,]3 [G,,G,] [G,,G,]4 | [D,F,]4 [D,F,]2 [D,F,]2 | [G,,G,]8 | [C,G,]4 [D,G,]2 [D,C]2 | %15
 [G,,B,]8 |] %16
V:3
 G,4 G,2 G,2 | x8 | x8 | x8 | x8 | G,3 x5 | A,4 x4 | x8 | x6 G,2 | x8 | x8 | x8 | x8 | x8 | x8 | %15
 x8 |] %16

